X:369
T:Idle Road, The
S:Raphael Meehan, Donegal
Z:Nigel Gatherer
L:1/8
M:6/8
K:G
E|DBB Dcc|DBB c2e|dBG FGA| BGB AFD|
  DBB Dcc|DBB c2e|dBG FGA|1BGF G2:|2BGF GBd||
  efg efg|fed cAF|G2g gfg|afd cAF|
  DBB Dcc|DBB c2e|dBG FGA|1BGF GBd:|2BGF G2||
<end>
<start>
